X: 1
T: St. James Infirmary Blues
C: Joe Primrose (1928)
M: 4/4
L: 1/8
Q:100
K: Bb
DF |: "Dm" A2 AA "A7" G3 A| "Dm" F D3-D3 F | "Dm" A2 A2 "Bb7" d3 B| "A7" A6 DF |
w: I went down to Saint James in-firm-ry _ Saw my baby ly-ing there, she was
"Dm" AAAA "A7" G2 A2 | "Dm" F D3-"F7"D3 F | "Bb7" F3D "A7" F3 F | "Dm" D6 DF:|
w: stretched out  on a long white ta-ble, _ so cold so sweet so fair _ _ 